X:1
T:Star of Peace, 87.84.84
T:Star of Peace, 87.84.84
T:Lowell Mason (1792-1872)
T:Public Domain Courtesy of the Cyber Hymnal™
C:Lowell Mason (1792-1872)
Z:Public Domain
Z:Courtesy of the Cyber Hymnal™
%%score ( 1 2 ) 3
L:1/8
Q:1/4=115
M:4/4
K:D
V:1 treble 
V:2 treble 
V:3 bass 
V:1
 [A,D]3 [A,D] [A,D]2 [A,D]2 | [CE]2 [CE]2 [DF]2 [CE]2 | [DF]3 [DF] [DF]2 [D^G]2 | %3
 [CA]2 [EB]2 [Ec]4 | [Fd]3 [Fd] ([Ge][Fd]) ([Ac][GB]) | [FA]3 [DF] [DF]2 [CE]2 | %6
 [B,D]4 [CE]3 [CE] | [DF]8 | [Fd]3 [Fd] ([Ge][Fd]) ([Ac][GB]) | [FA]3 [DF] [DF]2 [CE]2 | %10
 [B,D]4 [CF]3 [CE] | D8 |] %12
V:2
 x8 | x8 | x8 | x8 | x8 | x8 | x8 | x8 | x8 | x8 | x8 | D8 |] %12
V:3
 [D,F,]3 [D,F,] [D,F,]2 [D,F,]2 | [A,,A,]2 [A,,A,]2 [D,A,]2 [A,,A,]2 | %2
 [D,A,]3 [D,A,] [B,,B,]2 [E,B,]2 | [F,A,]2 [E,^G,]2 [A,,A,]4 | [D,A,]3 [D,A,] [D,A,]2 [D,A,]2 | %5
 [D,A,]3 [D,A,] [D,A,]2 [A,,G,]2 | [B,,F,]4 [A,,A,]3 [A,,A,] | [D,A,]8 | %8
 [D,A,]3 [D,A,] [D,A,]2 [D,C]2 | [D,D]3 [D,A,] [D,A,]2 [A,,G,]2 | [B,,F,]4 [A,,A,]3 [A,,G,] | %11
 [D,F,]8 |] %12

